svg/redis.svg

<svg data-name="Layer 1" xmlns="http://www.w3.org/2000/svg" viewBox="0 0 20 20"><path fill="#c00" d="M0 0h20v20H0z"/><path d="M15.5 3h-11A1.5 1.5 0 0 0 3 4.5v11A1.5 1.5 0 0 0 4.5 17h11a1.5 1.5 0 0 0 1.5-1.5v-11A1.5 1.5 0 0 0 15.5 3zM11 5h4v4h-4zM7 15a2 2 0 1 1 2-2 2 2 0 0 1-2 2zm1.34-7.43l.31 1.81L7 8.53l-1.6.85.31-1.81-1.32-1.28L6.21 6 7 4.38 7.84 6l1.81.26zm2.22 7.65L13 11l2.44 4.22z" fill="#fff"/></svg>

<svg id="Layer_1" data-name="Layer 1" xmlns="http://www.w3.org/2000/svg" viewBox="0 0 20 20"><defs><style>.cls-1{fill:#c00;}.cls-2{fill:#fff;}</style></defs><title>redis</title><rect class="cls-1" width="20" height="20"/><path class="cls-2" d="M15.5,3H4.5A1.5,1.5,0,0,0,3,4.5v11A1.5,1.5,0,0,0,4.5,17h11A1.5,1.5,0,0,0,17,15.5V4.5A1.5,1.5,0,0,0,15.5,3ZM11,5h4V9H11ZM7,15a2,2,0,1,1,2-2A2,2,0,0,1,7,15ZM8.34,7.57l.31,1.81L7,8.53,5.4,9.38l.31-1.81L4.39,6.29,6.21,6,7,4.38,7.84,6l1.81.26Zm2.22,7.65L13,11l2.44,4.22Z"/></svg>
